X:1
T:Title
%%score { ( 1 3 4 ) | ( 2 5 ) }
L:1/8
Q:1/4=132
M:4/4
K:F
V:1 treble nm="Grand Piano"
V:3 treble 
V:4 treble 
V:2 bass 
V:5 bass 
V:1
 [FAc]2 [FAc]2 [FAd]2 [FAd]2 | d4 z4 | [FAc]2 [FAc]2 [FAd]2 [FAe]2 | d4 z4 | %4
w: Vivian~Jones * * *||||
 [FAc]2 [GAc]2 [FAd]2 [DA]2 | [DGB]2 [DG=B]2 [CGc]2 [CEG]2 | [CFA]2 [FAd]2 [GA^c]2 [FAd]2 | %7
w: |||
 [Gce]2 [F=Bd]2 [EGc]4 | [EG]2 [EG]2 [FA]2 [FA]2 | [GB]4 [GB]4 | [CFA]2 [CFA]2 [DGB]2 [^CGB]2 | %11
w: ||||
 [Ac]4 [Ac]4 | A2 A2 B2 c2 | e2 d2 B2 G2 | [FA]4 F2 z2 | [A,F]6 z2 | [cegc']2 c>c c2 [cegc']2 | %17
w: ||||||
 [cegc']2 c>c c2 [A^cea]2 | [Adfa]2 A>A A2 [A^cea]2 | [Adfa]2 [DFA]>[DFA] [DFA]2 z2 | %20
w: |||
 [ec'e']2 [dbd']2 [cac']2 [Bgb]2 | [Afa]3 [Bgb] [cac']4 | [ec'e']2 [dbd']2 [cac']2 [Bgb]2 | %23
w: |||
 [Afa]3 [dbd'] [cac']4 | [FA]2 [FA]2 [FB]2 [Fc]2 | [FBe]2 [FBd]2 [DGc]2 [DGB]2 | [CFA]4 [B,EG]4 | %27
w: ||||
 [A,C]4- [A,CFAcf]2 z2 |] %28
w: |
V:2
 [F,,F,]2 [C,,C,]2 [F,,F,]2 [C,,C,]2 | [G,,G,]2 [C,,C,]2 [G,,G,]2 [C,,C,]2 | %2
 [F,,F,]2 [C,,C,]2 [F,,F,]2 [C,,C,]2 | [G,,G,]2 [C,,C,]2 [G,,G,]2 [C,,C,]2 | %4
 [F,,F,]2 [_E,,_E,]2 [D,,D,]2 [^F,,^F,]2 | [G,,G,]2 [F,,F,]2 [E,,E,]2 [C,,C,]2 | %6
 [F,,F,]2 [D,,D,]2 [E,,E,]2 [F,,F,]2 | [G,,G,]2 [G,,G,]2 [C,G,]4 | [C,C]2 [C,B,]2 [C,A,]2 [C,C]2 | %9
 [C,C]2 z ^F C,2 C,2 | F,2 F,2 F,2 F,2 | F,2 z _A F,2 F,2 | [F,CF]2 [F,CF]2 [G,CF]2 [A,CF]2 | %13
 [B,G]2 [B,G]2 [G,DG]2[K:bass] [G,B,]2 | z2 =B,2 z2 E2 | F,6 z2 | %16
 [C,,C,]2[K:treble] [CEG]>[CEG] [CEG]2[K:bass] [B,,B,]2 | %17
 [A,,A,]2[K:treble] [CEG]>[CEG] [CEG]2[K:bass] [G,,G,]2 | %18
 [F,,F,]2[K:treble] [A,DF]>[A,DF] [A,DF]2[K:bass] [E,,E,]2 | [D,,D,]2 A,>A, A,2 z2 | %20
 C,B,EB, C,B,EB, | C,A,[K:treble]FB,[K:bass] C,B,[K:treble]FB, | C,B,EB, C,B,EB, | %23
 C,A,[K:treble]FA,[K:bass] C,A, .F2 | [F,,F,]2 [F,,F,]2 [G,,G,]2 [A,,A,]2 | %25
 [B,,B,]2 [B,,B,]2 [G,,G,]2 [G,,G,]2 | [C,,C,]2 [D,,D,]2 [E,,E,]2 [C,,C,]2 | %27
 [F,,F,]2 [C,,C,]2 [F,,,F,,]2 z2 |] %28
V:3
 x8 | [EB]2 z c c2- [EBc]2 | x8 | [EB]2 z c c2- [EBc]2 | x8 | x8 | x8 | x8 | x8 | z2 z A C2 C2 | %10
 x8 | C2 z =B C2 C2 | x8 | x8 | C2 z2 [B,G]4 | x8 | x8 | x8 | x8 | x8 | x8 | x8 | x8 | x8 | x8 | %25
 x8 | x8 | F4 z4 |] %28
V:4
 x8 | z2 [EB]2 [EB]2 z2 | x8 | z2 [EB]2 [EB]2 z2 | x8 | x8 | x8 | x8 | x8 | z2 C2 z4 | x8 | %11
 z2 C2 z4 | x8 | x8 | x8 | x8 | x8 | x8 | x8 | x8 | x8 | x8 | x8 | x8 | x8 | x8 | x8 | x8 |] %28
V:5
 x8 | x8 | x8 | x8 | x8 | x8 | x8 | x8 | x8 | z2 C,2 z4 | x8 | z2 F,2 z4 | x8 | x6[K:bass] x2 | %14
 C,4 C,4 | x8 | x2[K:treble] x4[K:bass] x2 | x2[K:treble] x4[K:bass] x2 | %18
 x2[K:treble] x4[K:bass] x2 | x8 | x8 | x2[K:treble] x2[K:bass] x2[K:treble] x2 | x8 | %23
 x2[K:treble] x2[K:bass] x4 | x8 | x8 | x8 | x8 |] %28

